X:1
T:Covenant (Towner), LM
T:Covenant (Towner), LM
T:Daniel Brink Towner (1850-1919)
T:Public Domain Courtesy of the Cyber Hymnal™
C:Daniel Brink Towner (1850-1919)
Z:Public Domain
Z:Courtesy of the Cyber Hymnal™
%%score ( 1 2 ) ( 3 4 )
L:1/8
Q:1/4=95
M:3/4
K:Bb
V:1 treble 
V:2 treble 
V:3 bass 
V:4 bass 
V:1
 [DF][B,D] [DF] | [DB]3 [FA] [EG][EB] | [DF]3 [FB] [EA][DB] | [Ec]3 [Ec] [DB][EA] | %4
 [DB]3 [DF] [FB][Fc] | [Fd]3 [Fd] [Fc][FB] | [EG]3 [GB] [FA][EG] | [DF]3 [DB] [DB]A | %8
 [DB]3 [DF] [^C=E][DF] | [DB]3 [FA] [FA][EG] | [EG]3 [EG] [E^F][EG] | [=Ec]3 [GB] [GB][FA] | %12
 [FA]3 F [=EG][_EA] | [DB]3 [DB] [Ec]d | [Ge]3 [Ge] [Gd][Gc] | [Fd]3 [Ec] [DB]A | [DB]3 |] %17
V:2
 x3 | x6 | x6 | x6 | x6 | x6 | x6 | x5 (C/E/) | x6 | x6 | x6 | x6 | x3 F x2 | x5 (F/_A/) | x6 | %15
 x5 (C/E/) | x3 |] %17
V:3
 [B,,B,][B,,B,] [B,,B,] | [B,,F,]3 [D,B,] [E,B,][G,B,] | B,3 [B,,D] [F,C][F,B,] | %3
 [F,A,]3 [F,A,] [F,B,][F,C] | [B,,B,]3 [B,,B,] [D,B,][F,A,] | B,3 [B,,B,] [C,A,][D,B,] | %6
 [E,B,]3 [E,B,] B,B, | B,3 [B,,F,] F,F, | [B,,F,]3 [B,,B,] [B,,B,][B,,B,] | %9
 [B,,F,]3 [D,B,] [E,B,][E,B,] | [E,B,]3 [E,B,] [E,B,][E,B,] | [C,G,]3 [=E,C] [F,C][F,C] | %12
 [F,C]3 [F,A,] [F,B,][F,C] | [B,,B,]3 [B,,F,] [B,,B,][B,,B,] | [E,B,]3 [E,B,] [E,B,][E,B,] | %15
 [F,B,]3 F, F,F, | [B,,F,]3 |] %17
V:4
 x3 | x6 | B,3 x3 | x6 | x6 | B,3 x3 | x4 (E,/F,/) (G,/A,/) | B,3 F, F, x | x6 | x6 | x6 | x6 | %12
 x6 | x6 | x6 | x3 F, F,F, | x3 |] %17

